svgs/sharp-regular/square-heart.svg

<svg xmlns="http://www.w3.org/2000/svg" viewBox="0 0 448 512"><!--! Font Awesome Pro 6.6.0 by @fontawesome - https://fontawesome.com License - https://fontawesome.com/license (Commercial License) Copyright 2024 Fonticons, Inc. --><path d="M48 80l0 352 352 0 0-352L48 80zM0 32l48 0 352 0 48 0 0 48 0 352 0 48-48 0L48 480 0 480l0-48L0 80 0 32zM115.3 271.2c-13.4-13.4-20.9-31.5-20.9-50.4l0-3.2c0-37.6 30.5-68.1 68.1-68.1c20.7 0 40.2 9.4 53.2 25.6l8.4 10.4 8.4-10.4c12.9-16.1 32.5-25.6 53.2-25.6c37.6 0 68.1 30.5 68.1 68.1l0 3.2c0 18.9-7.5 37-20.9 50.4l-22.3 22.3s0 0 0 0L224 379.9s0 0 0 0s0 0 0 0l-86.4-86.4s0 0 0 0l-22.3-22.3z"/></svg>

<svg xmlns="http://www.w3.org/2000/svg" viewBox="0 0 448 512"><!--! Font Awesome Pro 6.4.0 by @fontawesome - https://fontawesome.com License - https://fontawesome.com/license (Commercial License) Copyright 2023 Fonticons, Inc. --><path d="M48 80V432H400V80H48zM0 32H48 400h48V80 432v48H400 48 0V432 80 32zM115.3 271.2c-13.4-13.4-20.9-31.5-20.9-50.4v-3.2c0-37.6 30.5-68.1 68.1-68.1c20.7 0 40.2 9.4 53.2 25.6l8.4 10.4 8.4-10.4c12.9-16.1 32.5-25.6 53.2-25.6c37.6 0 68.1 30.5 68.1 68.1v3.2c0 18.9-7.5 37-20.9 50.4l-22.3 22.3 0 0L224 379.9l0 0 0 0-86.4-86.4 0 0-22.3-22.3z"/></svg>
